X:2575
T:Polska efter Hanna Pehr Olsson
B:http://www.smus.se/earkiv/fmk/browselarge.php?lang=sw&katalogid=Ske+30&bildnr=00063
Z:Nils L
R:Polska
O:Skåne, Särslöv
M:3/4
L:1/8
K:DDor
Ad d^c de | (ef) dd ^c2 | dd ee cA | c/(B/A/)^G/ GA A2 ::
de fg ga | a/(g/f/)(e/ f)d dc | de fg ga | a/(g/f/)(e/ f)d dc |
cA Ae cA | c/B/A/^G/ GA A2 !fermata!:|
(:musicend:)
(:music:)
